X:1
T: Serkenj fel
S: Nagyszalonta (Bihar), 1916
Q: "Moderato" 1/4=76
M:2/4
L:1/4
K:F
F/F/C | F/<F/ F | F/F/G | A/G/ F/ z/ | 
B/<A/G | G/G/ c | B/A/ G | A/G/ F/ z |

